icons/shield-check.svg

<svg xmlns="http://www.w3.org/2000/svg" width="24" height="24" viewBox="0 0 24 24">
  <path d="M12,1 C15.3333333,1 18.3333333,2 21,4 L21,13 C20.9981811,16.3304863 19.073592,19.5406076 16.0275,21.031 L12,23 L7.9725,21.031 C4.926408,19.5406076 3.00181891,16.3304863 3,13 L3,4 C5.66666667,2 8.66666667,1 12,1 Z M15.1616337,9.25016214 C14.7475097,8.8847586 14.1155778,8.92425435 13.7501742,9.33837836 L13.7501742,9.33837836 L10.9700121,12.488 L10.2498499,11.6717117 L10.1610152,11.5828086 C9.78851489,11.2539073 9.22065875,11.2461999 8.83839043,11.5834955 C8.42426642,11.948899 8.38477067,12.580831 8.75017421,12.994955 L8.75017421,12.994955 L10.2207624,14.6616216 L10.3105198,14.7513955 C10.7177952,15.1104909 11.3507811,15.0805663 11.7204382,14.6616216 L11.7204382,14.6616216 L15.2498499,10.6616216 L15.327,10.5624086 C15.6069605,10.1518544 15.543902,9.58745772 15.1616337,9.25016214 Z"/>
</svg>

<svg xmlns="http://www.w3.org/2000/svg" viewBox="0 0 24 24">
  <path d="M12 1c3.33 0 6.33 1 9 3v9a9.03 9.03 0 0 1-4.97 8.03L12 23l-4.03-1.97A9.03 9.03 0 0 1 3 13V4c2.67-2 5.67-3 9-3zm3.16 8.25a1 1 0 0 0-1.41.09l-2.78 3.15-.72-.82-.09-.09A1 1 0 0 0 8.75 13l1.47 1.67.1.1a1 1 0 0 0 1.4-.1l3.53-4 .08-.1a1 1 0 0 0-.17-1.31z"/>
</svg>
